X: 1
T: Da Spirit O' Whisky
M: 4/4
L: 1/8
R: reel
K: Edor
|: e2 ge- eege | d2 fd adfd | e2 ge- eege | dBAF E4 :|
|: B2 GB EBGB | A2 FA DAFA | E2 BA B3 e | dBAF E4 :|
